svg/jar.svg

<?xml version="1.0" encoding="UTF-8"?>
<svg xmlns="http://www.w3.org/2000/svg" xmlns:xlink="http://www.w3.org/1999/xlink" width="32" height="32" viewBox="0 0 32 32">
<rect x="-3.2" y="-3.2" width="38.4" height="38.4" fill="rgb(100%, 100%, 100%)" fill-opacity="1"/>
<path fill-rule="nonzero" fill="rgb(40.000001%, 40.000001%, 40.000001%)" fill-opacity="1" d="M 32 32 L 0 32 L 0 0 L 32 0 Z M 3.105469 28.800781 L 28.929688 28.800781 L 28.929688 3.199219 L 3.105469 3.199219 "/>
<path fill-rule="nonzero" fill="rgb(0%, 0%, 0%)" fill-opacity="1" d="M 16.734375 15.070312 C 17.664062 16.128906 16.480469 17.089844 16.480469 17.089844 C 16.480469 17.089844 18.816406 15.871094 17.757812 14.367188 C 16.769531 12.960938 15.96875 12.257812 20.160156 9.824219 C 20.160156 9.824219 13.601562 11.488281 16.734375 15.070312 M 17.757812 5.917969 C 17.757812 5.917969 19.742188 7.902344 15.871094 10.976562 C 12.769531 13.441406 15.167969 14.847656 15.871094 16.449219 C 14.046875 14.816406 12.734375 13.375 13.632812 12.03125 C 14.914062 10.046875 18.558594 9.085938 17.757812 5.917969 M 19.9375 20.640625 C 23.519531 18.785156 21.855469 16.960938 20.703125 17.214844 C 20.414062 17.28125 20.289062 17.3125 20.289062 17.3125 C 20.289062 17.3125 20.382812 17.152344 20.609375 17.085938 C 22.914062 16.289062 24.671875 19.457031 19.871094 20.734375 C 19.839844 20.734375 19.902344 20.671875 19.9375 20.640625 M 13.3125 21.410156 C 13.3125 21.410156 12.574219 21.824219 13.824219 21.984375 C 15.328125 22.144531 16.128906 22.144531 17.792969 21.824219 C 17.792969 21.824219 18.242188 22.113281 18.847656 22.335938 C 15.105469 23.9375 10.367188 22.242188 13.3125 21.410156 M 12.863281 19.328125 C 12.863281 19.328125 12.03125 19.9375 13.3125 20.0625 C 14.945312 20.222656 16.222656 20.257812 18.433594 19.808594 C 18.433594 19.808594 18.753906 20.128906 19.230469 20.289062 C 14.6875 21.632812 9.632812 20.382812 12.863281 19.328125 M 21.695312 22.976562 C 21.695312 22.976562 22.242188 23.425781 21.085938 23.777344 C 18.914062 24.449219 12.0625 24.640625 10.175781 23.808594 C 9.503906 23.519531 10.785156 23.105469 11.167969 23.007812 C 11.585938 22.914062 11.839844 22.945312 11.839844 22.945312 C 11.070312 22.398438 6.914062 24 9.726562 24.449219 C 17.375 25.664062 23.679688 23.871094 21.695312 22.976562 M 13.664062 17.152344 C 13.664062 17.152344 10.175781 17.984375 12.414062 18.273438 C 13.375 18.398438 15.265625 18.367188 17.023438 18.207031 C 18.464844 18.082031 19.902344 17.824219 19.902344 17.824219 C 19.902344 17.824219 19.390625 18.046875 19.039062 18.304688 C 15.488281 19.230469 8.671875 18.816406 10.625 17.855469 C 12.320312 17.054688 13.664062 17.152344 13.664062 17.152344 M 14.015625 25.695312 C 17.472656 25.917969 22.753906 25.566406 22.878906 23.9375 C 22.878906 23.9375 22.625 24.542969 20.03125 25.054688 C 17.085938 25.601562 13.441406 25.535156 11.296875 25.183594 C 11.328125 25.183594 11.777344 25.566406 14.015625 25.695312 "/>
</svg>

<svg role="img" viewBox="0 0 32 32" xmlns="http://www.w3.org/2000/svg"><path d="M-3.2-3.2h38.4v38.4H-3.2z" fill="rgb(100%, 100%, 100%)"/><path d="M32 32H0V0h32ZM3.105 28.8H28.93V3.2H3.105" fill="rgb(40.000001%, 40.000001%, 40.000001%)"/><path d="M16.734 15.07c.93 1.059-.254 2.02-.254 2.02s2.336-1.219 1.278-2.723c-.988-1.406-1.79-2.11 2.402-4.543 0 0-6.558 1.664-3.426 5.246m1.024-9.152s1.984 1.984-1.887 5.059c-3.101 2.464-.703 3.87 0 5.472-1.824-1.633-3.137-3.074-2.238-4.418 1.281-1.984 4.926-2.945 4.125-6.113m2.18 14.723c3.582-1.856 1.917-3.68.765-3.426-.289.066-.414.098-.414.098s.094-.16.32-.227c2.305-.797 4.063 2.371-.738 3.648-.031 0 .031-.062.067-.093m-6.625.77s-.739.413.511.573c1.504.16 2.305.16 3.969-.16 0 0 .45.29 1.055.512-3.743 1.602-8.48-.094-5.535-.926m-.45-2.082s-.832.61.45.735c1.632.16 2.91.195 5.12-.254 0 0 .32.32.797.48-4.542 1.344-9.597.094-6.367-.96m8.832 3.648s.547.449-.61.8c-2.17.672-9.022.864-10.91.032-.671-.29.61-.704.993-.801.418-.094.672-.063.672-.063-.77-.547-4.926 1.055-2.113 1.504 7.648 1.215 13.953-.578 11.968-1.472m-8.03-5.825s-3.49.832-1.25 1.121c.96.125 2.85.094 4.608-.066 1.442-.125 2.88-.383 2.88-.383s-.512.223-.864.48c-3.55.926-10.367.512-8.414-.449 1.695-.8 3.04-.703 3.04-.703m.35 8.543c3.458.223 8.739-.129 8.864-1.758 0 0-.254.606-2.848 1.118-2.945.547-6.59.48-8.734.129.031 0 .48.382 2.719.511" fill="rgb(0%, 0%, 0%)"/></svg>
